!!!COM: Palestrina, Giovanni Perluigi da
!!!OPR: Missa Illumina oculos meos
!!!OMD: Credo
!!!OTL: Et in Spiritum
**kern	**kern	**kern	**kern	**kern	**kern
*Ibass	*Ibarit	*Itenor	*Itenor	*Icalto	*Icant
!Bassus	!Baritone	!Tenor 2	!Tenor 1	!Altus	!Cantus
*clefF4	*clefF4	*clefGv2	*clefGv2	*clefG2	*clefG2
*k[]	*k[]	*k[]	*k[]	*k[]	*k[]
*E:phr	*E:phr	*E:phr	*E:phr	*E:phr	*E:phr
*M4/2	*M4/2	*M4/2	*M4/2	*M4/2	*M4/2
=178	=178	=178	=178	=178	=178
1.E	0r	1.B	1.G#	1.e	0r
2E	.	2B	2G#	2e	.
=179	=179	=179	=179	=179	=179
2AA	0r	2c	2A	2e	0r
2AA	.	2c	2A	2e	.
1E	.	1B	1G	1e	.
=180	=180	=180	=180	=180	=180
1D	0r	1d	1.A	1f	0r
2AA	.	2c	.	2e	.
4D	.	[2A	2F	[2d	.
4E	.	.	.	.	.
=181	=181	=181	=181	=181	=181
4F	0r	2A]	2D	4d]	0r
4G	.	.	.	4c	.
1A	.	2A	2F	4c	.
.	.	.	.	8B	.
.	.	.	.	8A	.
.	.	[1e	1E	2B	.
2G#	.	.	.	2B	.
=182	=182	=182	=182	=182	=182
1A	2r	1e]	2r	2A	2r
.	1A	.	1c	1e	1a
1r	.	1r	.	.	.
.	2A	.	2c	2e	2a
=183	=183	=183	=183	=183	=183
0r	2D	0r	2d	2f	2a
.	2D	.	2d	2f	2a
.	1A	.	2c	[1e	1cc
.	.	.	4B	.	.
.	.	.	4A	.	.
=184	=184	=184	=184	=184	=184
0r	2G	0r	2B	2e]	2b
.	2.F	.	2c	2.A	2.a
.	.	.	[1A	.	.
.	4E	.	.	4B	4g
.	4D	.	.	[2c	4f
.	4C	.	.	.	4e
=185	=185	=185	=185	=185	=185
1r	1D	1r	2A]	2c]	1f
.	.	.	4G	2B	.
.	.	.	4F	.	.
2r	1C	2r	2G	2c	1e
[2C	.	[2c	[2G	[2e	.
=186	=186	=186	=186	=186	=186
2C]	0r	2c]	2G]	2e]	0r
2C	.	2c	2G	2e	.
1GG	.	1B	1G	1d	.
=187	=187	=187	=187	=187	=187
2C	0r	2c	2G	2e	1r
2E	.	2B	2G	2e	.
2D	.	2d	2A	2f	2r
2GG	.	2d	2B	2g	[2g
=188	=188	=188	=188	=188	=188
1C	0r	1c	0G	1e	2g]
.	.	.	.	.	2g
2r	.	2B	.	2d	1g
[2C	.	[2e	.	4c	.
.	.	.	.	4d	.
=189	=189	=189	=189	=189	=189
4C]	0r	4e]	0r	4e	2g
4D	.	4d	.	4f	.
2E	.	1c	.	2e	2g
2F	.	.	.	1d	2a
2G	.	2B	.	.	2b
=190	=190	=190	=190	=190	=190
1C	2r	1c	2r	0e	2g
.	2.C	.	2.e	.	2.g
1r	.	1r	.	.	.
.	4D	.	4d	.	4f
.	2E	.	[2c	.	2e
=191	=191	=191	=191	=191	=191
1r	2F	1r	2c]	1r	1d
.	2G	.	2B	.	.
2r	1C	2r	2c	2r	2e
[2C	.	[2c	[2G	[2e	[2g
=192	=192	=192	=192	=192	=192
2C]	0r	2c]	2G]	2e]	2g]
2C	.	2c	2G	2e	2g
1C	.	1e	1G	1g	1cc
=193	=193	=193	=193	=193	=193
0GG	2r	2d	1G	2g	2b
.	2G	2B	.	1d	2g
.	2G	2B	2r	.	2b
.	2G	2G	2d	[2g	2b
=194	=194	=194	=194	=194	=194
0r	1D	1A	2d	2g]	1a
.	.	.	2d	2f#	.
.	2r	1B	1G	2g	2r
.	[2E	.	.	[2e	[2g
=195	=195	=195	=195	=195	=195
0r	2E]	2G	0r	2e]	2g]
.	2C	2.A	.	2e	2e
.	2D	.	.	2d	2f
.	.	4B	.	.	.
.	2E	[2c	.	2G	2g
=196	=196	=196	=196	=196	=196
1r	1F	2c]	1r	2c	1a
.	.	4B	.	2d	.
.	.	4A	.	.	.
2r	1E	2B	2r	1e	2g
2E	.	2G	2B	.	2e
=197	=197	=197	=197	=197	=197
2E	0r	2B	2e	0r	2g
2C	.	2c	2e	.	2g
2D	.	2A	2d	.	2f
2E	.	2G	2B	.	2e
=198	=198	=198	=198	=198	=198
1F	1r	2c	1A	1r	1a
.	.	2d	.	.	.
2E	2r	1e	2B	2r	2g
[2C	[2E	.	[2c	[2e	[2g
=199	=199	=199	=199	=199	=199
2C]	2E]	2r	2c]	2e]	2g]
2C	2C	1e	2c	2e	2g
2C	2.E	.	2.G	2g	2cc
2C	.	2e	.	2g	2cc
.	4F	.	4A	.	.
=200	=200	=200	=200	=200	=200
1GG	2G	2d	1B	2g	1b
.	1G	2d	.	2G	.
1D	.	1d	2r	1A	2.dd
.	2F#	.	2d	.	.
.	.	.	.	.	4cc
=201	=201	=201	=201	=201	=201
2GG	1G	2r	2d	2.B	4b
.	.	.	.	.	4a
1G	.	2.d	4G	.	1b
.	.	.	4A	4c	.
.	1D	.	4B	1d	.
.	.	4c	4c	.	.
2F	.	2A	[2d	.	[2a
=202	=202	=202	=202	=202	=202
1E	0r	2B	4d]	1G	2a]
.	.	.	4B	.	.
.	.	2G	2c	.	1g
1D	.	1A	1d	2r	.
.	.	.	.	2d	2f#
=203	=203	=203	=203	=203	=203
0GG	2r	1G	2.B	2d	2g
.	2G	.	.	2d	2g
.	.	.	4c	.	.
.	2G	1r	1d	1B	2g
.	2G	.	.	.	2g
=204	=204	=204	=204	=204	=204
0r	1A	0r	0r	1c	1e
.	2.D	.	.	2.A	1f
.	4E	.	.	4G	.
=205	=205	=205	=205	=205	=205
0r	2F	0r	0r	2A	1d
.	2.G	.	.	2.B	.
.	.	.	.	.	2.g
.	4F	.	.	8A	.
.	.	.	.	8B	.
.	2E	.	.	[2c	.
.	.	.	.	.	8f
.	.	.	.	.	8e
=206	=206	=206	=206	=206	=206
0r	2D	1r	0r	2c]	2f
.	2D	.	.	2B	2f
.	2.C	2r	.	[1c	[1e
.	.	2G	.	.	.
.	4D	.	.	.	.
=207	=207	=207	=207	=207	=207
1C	4E	2G	2r	0c]	0e]
.	4D	.	.	.	.
.	4E	2G	2c	.	.
.	4F	.	.	.	.
2C	1G	2E	2c	.	.
2C	.	2E	2c	.	.
=208	=208	=208	=208	=208	=208
2D	1r	1F	2A	0r	0r
2D	.	.	2A	.	.
2.GG	2r	2.D	[1B	.	.
.	[2G	.	.	.	.
4AA	.	4C	.	.	.
=209	=209	=209	=209	=209	=209
2BB	4G]	2D	2B]	0r	0r
.	4F	.	.	.	.
1C	4E	2.E	2G	.	.
.	4D	.	.	.	.
.	2C	.	2A	.	.
.	.	4F	.	.	.
2BB	2D	[2G	2B	.	.
=210	=210	=210	=210	=210	=210
2AA	2E	2G]	2.c	0r	0r
2AA	2C	2F#	.	.	.
.	.	.	8B	.	.
.	.	.	8A	.	.
[1GG	1D	1G	[1B	.	.
=211	=211	=211	=211	=211	=211
1GG]	1G	0r	1B]	1d	0g
1r	[1c	.	1r	1e	.
=212	=212	=212	=212	=212	=212
0r	2c]	1A	0r	1e	1.cc
.	2B	.	.	.	.
.	2A	[1c	.	1e	.
.	2G	.	.	.	2b
=213	=213	=213	=213	=213	=213
0r	2F	2c]	0r	1r	2a
.	4E	2c	.	.	2g
.	4D	.	.	.	.
.	2C	2c	.	1G	2e
.	2E	2c	.	.	2g
=214	=214	=214	=214	=214	=214
0r	1D	2d	0r	2A	1f
.	.	2d	.	2B	.
.	[1C	1e	.	2.c	2e
.	.	.	.	.	[2g
.	.	.	.	4d	.
=215	=215	=215	=215	=215	=215
0r	1C]	1c	1r	2e	4g]
.	.	.	.	.	4f
.	.	.	.	1c	2e
.	1r	1r	1G	.	1d
.	.	.	.	2B	.
=216	=216	=216	=216	=216	=216
1AA	0r	1r	1c	1A	[0e
1C	.	2r	2c	1G	.
.	.	2G	2B	.	.
=217	=217	=217	=217	=217	=217
2C	0r	1c	2A	0r	0e]
2C	.	.	2G	.	.
2C	.	2.c	2E	.	.
2C	.	.	2G	.	.
.	.	4B	.	.	.
=218	=218	=218	=218	=218	=218
2D	1r	1A	1F	1r	0r
2D	.	.	.	.	.
1E	2r	1G	1E	1B	.
.	2G	.	.	.	.
=219	=219	=219	=219	=219	=219
[0C	1c	2.E	1r	1e	0r
.	.	4F	.	.	.
.	2c	1G	1G	2e	.
.	2B	.	.	2e	.
=220	=220	=220	=220	=220	=220
0C]	2A	1E	1c	2e	2r
.	2G	.	.	2e	2g
.	2E	1r	2c	2e	1cc
.	2G	.	2c	2e	.
=221	=221	=221	=221	=221	=221
0r	0F	0r	2.c	0A	2cc
.	.	.	.	.	2b
.	.	.	4c	.	.
.	.	.	2d	.	1a
.	.	.	2d	.	.
=222	=222	=222	=222	=222	=222
2r	0E	2r	1e	2B	1g
1C	.	1c	.	1e	.
.	.	.	1c	.	2e
2C	.	2G	.	2e	2g
=223	=223	=223	=223	=223	=223
1D	0r	4B	0r	1d	1f
.	.	4A	.	.	.
.	.	1A	.	.	.
[1E	.	.	.	[1B	[1e
.	.	4G#	.	.	.
.	.	4F#	.	.	.
=224	=224	=224	=224	=224	=224
1E]	1r	1G#	0r	1B]	1e]
1r	[1A	1r	.	[1c	2r
.	.	.	.	.	[2e
=225	=225	=225	=225	=225	=225
0r	2A]	0r	0r	2c]	2e]
.	2A	.	.	2c	2f
.	1A	.	.	1c	2e
.	.	.	.	.	[2a
=226	=226	=226	=226	=226	=226
1r	1B	1r	1r	1d	4a]
.	.	.	.	.	8g#
.	.	.	.	.	8f#
.	.	.	.	.	2g#
[1AA	1A	2r	2r	2e	[1a
.	.	[2E	[2A	[2c	.
=227	=227	=227	=227	=227	=227
2AA]	0r	2E]	2A]	2c]	0a]
2AA	.	2F	2A	2c	.
1AA	.	2E	1A	1c	.
.	.	[2A	.	.	.
=228	=228	=228	=228	=228	=228
1BB	0r	4A]	1D	1d	0r
.	.	8G#	.	.	.
.	.	8F#	.	.	.
.	.	2G#	.	.	.
1AA	.	1A	1E	1c	.
*-	*-	*-	*-	*-	*-
!!!CDT: 1525/^1526/-1594/2/2
!!!OCY: Italia
!!!AGN: Mass (Parody)
!!!AST: renaissance, vocal
!!!ASW: Motet (Silva)
!!!PWK: Masses, Book 10
!!!RNB: Cadence finals: G,C,A
!!!YOR: Le Opere Complete, v. 27, p. 155
!!!YOO: Rome, Italy: Fratelli Scalera
!!!END: 1992//
!!!EED: John Miller
!!!YEC: Copyright 2000, John Miller
!!!YEN: United States of America
!!!YEM: Rights to all derivative electronic formats reserved.
!!!YEM: Refer to licensing agreement for further details.
!!!YEM: This file must be accompanied by the licensing agreement.
!!!YEM: A copy of the licensing agreement may be found at http://www.music-cog.ohio-state.edu/HumdrumDatabases/Palestrina/license.txt
!!!EMD: converted to Humdrum by Bret Aarden
